X: 02115
T: The ROAD TO GLASGOW
C: Bob McQuillen Apr.'75
B: Bob's Note Book 1&2 #115
%R: march
Z: 2019 John Chambers <jc:trillian.mit.edu>
M: C
L: 1/4
K: A
E \
| A>E CE | A2 Ac | B>c dB | c2 Ac | B>c dB | c2 Ac | Be ef | ed cB |
| A>E CE | A2 Ac | B>c dB | c2 Ac | Bc dc | BA GF | GA BG | A3 ||
|| c \
| Bc dB | c2 ec | Bc dB | c3 c | Bc dc | BA GF | GA BG | A3 c |
| Bc dB | c2 ec | Bc dB | c2 ee | fa ee | fa ed | cc BB | A3 |]
%%begintext align
%% With love to ????? + Sarah B.;
%% U.N.H. Durham, Beethoven's 9th,
%% Pizza, Porter, and Pipers!!
%% (How do ye get to Glasgow from here?!!)
%%endtext

%%sep 1 1 500

%%sep 1 1 500

